X: 8698
T: Crow On The Shore
R: hornpipe
M: 4/4
K: Aminor
AG|E2 AB AB cd|ea ge cd ec|d2>e2 c2 cd|cB AG E2 ED|
E2 AB AB cd|ea ae gd ec|ef ed cd ec|dc BG A2:|
eg|ab a^g a2 e=g|ab a^g a2 e=g|ab ^ge =g2 ge|de dB G2 eg|
ab a^g a2 e=g|ab a^g a2 e=g|ag ea ge dg|ed BG A2:|

